X: 17
T: Apples In Winter
Z: Yoann
S: https://thesession.org/tunes/299#setting51639
R: jig
M: 6/8
L: 1/8
K: Edor
|:BEE dEE|BAG FGE|~D3 FEF|ABc dcd|
BEE BAB|def gag|fed BAF|1GED E2(G/A/):|2GED E2B||
|:efe edB|~g3 edB|ded dAF|DFA def|
efe e2f|gfg bag|fed BAF|1GED E2B:|2GED E2(G/A/)||

%-------------------- TUNE SEPARATOR --------------------%

